packages/core/src/svgs/tokens/branded/ETHW.svg

<svg width="24" height="24" viewBox="0 0 24 24" fill="none" xmlns="http://www.w3.org/2000/svg">
<path d="M11.9999 9.45265L5.68408 12L11.9999 2V9.45265Z" fill="url(#paint0_linear_364_1902)"/>
<path d="M12 9.45265L18.3157 12L12 2V9.45265Z" fill="url(#paint1_linear_364_1902)"/>
<path d="M11.9999 15.1581L5.68408 11.8317L11.9999 9.36853V15.1581Z" fill="url(#paint2_linear_364_1902)"/>
<path d="M12.0056 15.1581L18.3161 11.8317L12.0056 9.36853V15.1581Z" fill="#FBFCF7"/>
<path d="M15.3311 7.73159L14.9996 13.5895L11.9259 9.58952L8.87327 13.7316L8.51538 8.06317L8.66801 8.0579L8.99433 13.3L11.9207 9.33686L14.868 13.1685L15.1786 7.72107L15.3364 7.73159H15.3311Z" fill="#B0B4E9"/>
<path d="M8.61041 8.32106C9.04934 8.32106 9.40515 7.97466 9.40515 7.54737C9.40515 7.12007 9.04934 6.77368 8.61041 6.77368C8.17148 6.77368 7.81567 7.12007 7.81567 7.54737C7.81567 7.97466 8.17148 8.32106 8.61041 8.32106Z" fill="url(#paint3_linear_364_1902)"/>
<path d="M8.78922 6.95279C8.85238 6.91069 8.98922 6.97385 9.05238 7.01069C9.06817 7.06859 9.09448 7.18964 9.02079 7.22122C8.93133 7.25807 8.94185 7.15806 8.85238 7.12648C8.7629 7.08964 8.69975 7.01069 8.78396 6.95279H8.78922Z" fill="#DADCF4"/>
<path d="M12.005 10.1687C12.4439 10.1687 12.7997 9.82226 12.7997 9.39502C12.7997 8.96773 12.4439 8.62134 12.005 8.62134C11.5661 8.62134 11.2102 8.96773 11.2102 9.39502C11.2102 9.82226 11.5661 10.1687 12.005 10.1687Z" fill="url(#paint4_linear_364_1902)"/>
<path d="M12.1791 8.80553C12.2475 8.75815 12.3843 8.82131 12.4423 8.85815C12.4633 8.92131 12.4844 9.04236 12.416 9.06868C12.3265 9.10552 12.337 9.01079 12.2475 8.97394C12.1528 8.94236 12.0896 8.86342 12.1791 8.80553Z" fill="#DADCF4"/>
<path d="M15.2787 8.32106C15.7176 8.32106 16.0734 7.97466 16.0734 7.54737C16.0734 7.12007 15.7176 6.77368 15.2787 6.77368C14.8398 6.77368 14.4839 7.12007 14.4839 7.54737C14.4839 7.97466 14.8398 8.32106 15.2787 8.32106Z" fill="url(#paint5_linear_364_1902)"/>
<path d="M15.4526 6.95279C15.521 6.91069 15.6579 6.97385 15.7158 7.01069C15.7368 7.06859 15.7579 7.18964 15.6895 7.22122C15.6 7.25807 15.6105 7.15806 15.5157 7.12648C15.4263 7.08964 15.3683 7.01069 15.4526 6.95279Z" fill="#DADCF4"/>
<path d="M14.9424 14.2843C15.3813 14.2843 15.7371 13.938 15.7371 13.5106C15.7371 13.0834 15.3813 12.7369 14.9424 12.7369C14.5035 12.7369 14.1477 13.0834 14.1477 13.5106C14.1477 13.938 14.5035 14.2843 14.9424 14.2843Z" fill="url(#paint6_linear_364_1902)"/>
<path d="M15.1157 12.9159C15.1841 12.8739 15.321 12.937 15.3788 12.9738C15.3998 13.0317 15.421 13.1528 15.3526 13.1843C15.263 13.2212 15.2736 13.1212 15.1789 13.0896C15.0894 13.0528 15.0314 12.9738 15.1157 12.9159Z" fill="#DADCF4"/>
<path d="M8.90509 14.2843C9.34401 14.2843 9.6998 13.938 9.6998 13.5106C9.6998 13.0834 9.34401 12.7369 8.90509 12.7369C8.46616 12.7369 8.11035 13.0834 8.11035 13.5106C8.11035 13.938 8.46616 14.2843 8.90509 14.2843Z" fill="url(#paint7_linear_364_1902)"/>
<path d="M9.07913 12.9159C9.14754 12.8739 9.28965 12.937 9.34228 12.9738C9.36334 13.0317 9.38964 13.1528 9.31596 13.1843C9.22649 13.2212 9.23702 13.1212 9.14754 13.0896C9.05806 13.0528 8.99492 12.9738 9.07913 12.9159Z" fill="#DADCF4"/>
<path d="M12.0577 16.6316L5.74194 13.0526L12.0577 22V16.6316Z" fill="url(#paint8_linear_364_1902)"/>
<path d="M12 16.6316L18.3157 13.0526L12 22V16.6316Z" fill="#C8CCF7"/>
<defs>
<linearGradient id="paint0_linear_364_1902" x1="5.90514" y1="18.5685" x2="16.1684" y2="6.26317" gradientUnits="userSpaceOnUse">
<stop stop-color="#A795F2"/>
<stop offset="1" stop-color="#B7D0E1"/>
</linearGradient>
<linearGradient id="paint1_linear_364_1902" x1="5.68416" y1="5.94737" x2="14.4841" y2="20.7053" gradientUnits="userSpaceOnUse">
<stop stop-color="#E1F0F3"/>
<stop offset="1" stop-color="#B3DBF5"/>
</linearGradient>
<linearGradient id="paint2_linear_364_1902" x1="18.1473" y1="5.36373" x2="6.82076" y2="7.788" gradientUnits="userSpaceOnUse">
<stop stop-color="#DEE1F9"/>
<stop offset="1" stop-color="#D6CDFB"/>
</linearGradient>
<linearGradient id="paint3_linear_364_1902" x1="17.6046" y1="6.0136" x2="5.35228" y2="13.2897" gradientUnits="userSpaceOnUse">
<stop stop-color="#C0C7F2"/>
<stop offset="1" stop-color="#7890D6"/>
</linearGradient>
<linearGradient id="paint4_linear_364_1902" x1="17.5627" y1="6.0819" x2="5.33774" y2="13.3051" gradientUnits="userSpaceOnUse">
<stop stop-color="#C0C7F2"/>
<stop offset="1" stop-color="#7890D6"/>
</linearGradient>
<linearGradient id="paint5_linear_364_1902" x1="17.5627" y1="6.0136" x2="5.31027" y2="13.2897" gradientUnits="userSpaceOnUse">
<stop stop-color="#C0C7F2"/>
<stop offset="1" stop-color="#7890D6"/>
</linearGradient>
<linearGradient id="paint6_linear_364_1902" x1="17.5632" y1="6.01373" x2="5.3383" y2="13.2369" gradientUnits="userSpaceOnUse">
<stop stop-color="#C0C7F2"/>
<stop offset="1" stop-color="#7890D6"/>
</linearGradient>
<linearGradient id="paint7_linear_364_1902" x1="17.6045" y1="6.01373" x2="5.3797" y2="13.2369" gradientUnits="userSpaceOnUse">
<stop stop-color="#C0C7F2"/>
<stop offset="1" stop-color="#7890D6"/>
</linearGradient>
<linearGradient id="paint8_linear_364_1902" x1="7.03142" y1="3.17639" x2="20.8899" y2="16.8986" gradientUnits="userSpaceOnUse">
<stop stop-color="#6E89D3"/>
<stop offset="1" stop-color="#677FF0"/>
</linearGradient>
</defs>
</svg>

<svg xmlns="http://www.w3.org/2000/svg" width="24" height="24" fill="none" viewBox="0 0 24 24">
    <path fill="url(#ETHW__a)" d="M12 9.453 5.684 12 12 2z"/>
    <path fill="url(#ETHW__b)" d="M12 9.453 18.316 12 12 2z"/>
    <path fill="url(#ETHW__c)" d="m12 15.158-6.316-3.326L12 9.369z"/>
    <path fill="#FBFCF7" d="m12.006 15.158 6.31-3.326-6.31-2.463z"/>
    <path fill="#B0B4E9" d="M15.331 7.732 15 13.589l-3.074-4-3.053 4.143-.358-5.669.153-.005.326 5.242 2.927-3.963 2.947 3.832.31-5.448.158.01z"/>
    <path fill="url(#ETHW__d)" d="M8.61 8.321a.784.784 0 0 0 .795-.774.784.784 0 0 0-.795-.773.784.784 0 0 0-.794.773c0 .428.355.774.794.774"/>
    <path fill="#DADCF4" d="M8.79 6.953c.062-.042.2.02.262.058.016.058.042.179-.031.21-.09.037-.08-.063-.169-.095-.09-.036-.152-.115-.068-.173z"/>
    <path fill="url(#ETHW__e)" d="M12.005 10.169a.784.784 0 0 0 .795-.774.784.784 0 0 0-.795-.774.784.784 0 0 0-.795.774c0 .427.356.774.795.774"/>
    <path fill="#DADCF4" d="M12.18 8.806c.068-.048.204.015.262.052.021.063.042.184-.026.21-.09.038-.079-.057-.168-.094-.095-.032-.158-.11-.069-.168"/>
    <path fill="url(#ETHW__f)" d="M15.279 8.321a.784.784 0 0 0 .794-.774.784.784 0 0 0-.794-.773.784.784 0 0 0-.795.773c0 .428.356.774.795.774"/>
    <path fill="#DADCF4" d="M15.453 6.953c.068-.042.205.02.263.058.02.058.042.179-.026.21-.09.037-.08-.063-.174-.095-.09-.036-.148-.115-.063-.173"/>
    <path fill="url(#ETHW__g)" d="M14.942 14.284a.784.784 0 0 0 .795-.773.784.784 0 0 0-.795-.774.784.784 0 0 0-.794.774c0 .427.356.773.794.773"/>
    <path fill="#DADCF4" d="M15.116 12.916c.068-.042.205.021.263.058.02.058.042.179-.026.21-.09.037-.08-.063-.174-.094-.09-.037-.148-.116-.063-.174"/>
    <path fill="url(#ETHW__h)" d="M8.905 14.284a.784.784 0 0 0 .795-.773.784.784 0 0 0-.795-.774.784.784 0 0 0-.795.774c0 .427.356.773.795.773"/>
    <path fill="#DADCF4" d="M9.08 12.916c.068-.042.21.021.262.058.021.058.048.179-.026.21-.09.037-.079-.063-.168-.094-.09-.037-.153-.116-.069-.174"/>
    <path fill="url(#ETHW__i)" d="m12.058 16.632-6.316-3.58L12.058 22z"/>
    <path fill="#C8CCF7" d="m12 16.632 6.316-3.58L12 22z"/>
    <defs>
        <linearGradient id="ETHW__a" x1="5.905" x2="16.168" y1="18.569" y2="6.263" gradientUnits="userSpaceOnUse">
            <stop stop-color="#A795F2"/>
            <stop offset="1" stop-color="#B7D0E1"/>
        </linearGradient>
        <linearGradient id="ETHW__b" x1="5.684" x2="14.484" y1="5.947" y2="20.705" gradientUnits="userSpaceOnUse">
            <stop stop-color="#E1F0F3"/>
            <stop offset="1" stop-color="#B3DBF5"/>
        </linearGradient>
        <linearGradient id="ETHW__c" x1="18.147" x2="6.821" y1="5.364" y2="7.788" gradientUnits="userSpaceOnUse">
            <stop stop-color="#DEE1F9"/>
            <stop offset="1" stop-color="#D6CDFB"/>
        </linearGradient>
        <linearGradient id="ETHW__d" x1="17.605" x2="5.352" y1="6.014" y2="13.29" gradientUnits="userSpaceOnUse">
            <stop stop-color="#C0C7F2"/>
            <stop offset="1" stop-color="#7890D6"/>
        </linearGradient>
        <linearGradient id="ETHW__e" x1="17.563" x2="5.338" y1="6.082" y2="13.305" gradientUnits="userSpaceOnUse">
            <stop stop-color="#C0C7F2"/>
            <stop offset="1" stop-color="#7890D6"/>
        </linearGradient>
        <linearGradient id="ETHW__f" x1="17.563" x2="5.31" y1="6.014" y2="13.29" gradientUnits="userSpaceOnUse">
            <stop stop-color="#C0C7F2"/>
            <stop offset="1" stop-color="#7890D6"/>
        </linearGradient>
        <linearGradient id="ETHW__g" x1="17.563" x2="5.338" y1="6.014" y2="13.237" gradientUnits="userSpaceOnUse">
            <stop stop-color="#C0C7F2"/>
            <stop offset="1" stop-color="#7890D6"/>
        </linearGradient>
        <linearGradient id="ETHW__h" x1="17.605" x2="5.38" y1="6.014" y2="13.237" gradientUnits="userSpaceOnUse">
            <stop stop-color="#C0C7F2"/>
            <stop offset="1" stop-color="#7890D6"/>
        </linearGradient>
        <linearGradient id="ETHW__i" x1="7.031" x2="20.89" y1="3.176" y2="16.899" gradientUnits="userSpaceOnUse">
            <stop stop-color="#6E89D3"/>
            <stop offset="1" stop-color="#677FF0"/>
        </linearGradient>
    </defs>
</svg>
